X: 12608
T: Farewell To Waverly Park
R: reel
M: 4/4
K: Adorian
cd|:e2ce Aee_e|d2Bd GdBd|d2Ad FdAd|c2Ac =FcAc|
e2ce Aee_e|d2Bd GdBd|d2_Bd GdBd|cA=FG AGG2:|
|:d2_Bd GdBd|d2Ad =FdAd|c2Ac =FcAc|egce dGcd|
e2ce Aee_e|d2Bd GdBd|d2_Bd GdBd|cA=FG AGG2:|
|:_e2_Be GeBe|_e2ce _Aece|d2_Bd Gd_Bd|d2Ad FdAd|
e2ce Aee_e|d2Bd GdBd|d2Ad FdAd|cAFG AGG2:|

